svg/Pictogram/pictograms-aem-0097-wear_eye_protection-goggles.svg

<?xml version="1.0" encoding="ISO-8859-1" standalone="yes"?>
<svg height="304.014" width="304.014">
  <metadata>
    <rdf:RDF xmlns:cc="http://web.resource.org/cc/" xmlns:dc="http://purl.org/dc/elements/1.1/" xmlns:rdf="http://www.w3.org/1999/02/22-rdf-syntax-ns#">
      <cc:Work rdf:about="">
        <dc:title></dc:title>
        <dc:description></dc:description>
        <dc:subject>
          <rdf:Bag>
            <rdf:li></rdf:li>
          </rdf:Bag>
        </dc:subject>
        <dc:publisher>
          <cc:Agent rdf:about="http://www.unece.org/trans/danger/publi/ghs/pictograms.html">
            <dc:title>Source: UNECE GHS of Classification and Labeling of Chemicals, Source: AEM Pictorial Database, Source: AEM Pictorial Database, Source: AEM Pictorial Database, Source: AEM Pictorial Database</dc:title>
          </cc:Agent>
        </dc:publisher>
        <dc:creator>
          <cc:Agent>
            <dc:title></dc:title>
          </cc:Agent>
        </dc:creator>
        <dc:rights>
          <cc:Agent>
            <dc:title></dc:title>
          </cc:Agent>
        </dc:rights>
        <dc:date></dc:date>
        <dc:format>image/svg+xml</dc:format>
        <dc:type rdf:resource="http://purl.org/dc/dcmitype/StillImage"/>
        <cc:license rdf:resource="http://en.wikipedia.org/wiki/Public_domain"/>
        <dc:language>en</dc:language>
      </cc:Work>
    </rdf:RDF>
  </metadata>
  <defs><marker id="ArrowEnd" markerHeight="3" markerUnits="strokeWidth" markerWidth="4" orient="auto" refX="0" refY="5" viewBox="0 0 10 10"><path d="M 0 0 L 10 5 L 0 10 z"/></marker><marker id="ArrowStart" markerHeight="3" markerUnits="strokeWidth" markerWidth="4" orient="auto" refX="10" refY="5" viewBox="0 0 10 10"><path d="M 10 0 L 0 5 L 10 10 z"/></marker> </defs>
  <g id="g2958" transform="matrix(1.3532768,0,0,1.3532781,-53.207834,-52.192858)">
    <path d="M 180.858 141.991C 180.858 142.034 180.866 142.077 180.866 142.12C 181.503 157.209 169.784 169.955 154.698 170.592C 142.218 171.12 131.335 163.19 127.589 151.893C 126.761 149.389 125.999 149.831 122.347 150.901L 115.854 168.928C 115.628 169.538 115.155 171.065 115.257 171.745C 115.667 174.522 116.893 174.518 119.464 175.358L 134.503 177.631L 134.518 205.472C 134.522 216.878 143.772 226.116 155.175 226.112L 177.436 226.05C 222.456 222.772 251.874 187.002 252.112 141.944L 180.858 141.991" style="stroke:none; fill-rule:evenodd; fill:#000000"/>
    <path d="M 251.116 130.237C 247.124 107.854 231.397 87.3854 208.905 80.4134C 203.702 78.8034 198.136 77.9204 192.268 77.9014L 192.229 77.9134C 191.272 77.9094 190.311 77.9284 189.343 77.9714C 169.475 78.8854 149.378 91.7094 137.495 111.393C 135.983 113.897 134.675 116.569 133.6 119.409L 133.268 120.733C 134.022 123.327 136.347 122.049 136.347 122.049C 140.823 118.245 146.069 116.217 152.393 115.952C 163.222 115.495 172.839 121.397 177.647 130.342L 177.647 130.178L 251.116 130.237" style="stroke:none; fill-rule:evenodd; fill:#000000"/>
    <path d="M 158.643 142.463C 158.401 136.678 153.511 132.182 147.725 132.424C 141.936 132.67 137.44 137.561 137.682 143.346C 137.929 149.135 142.819 153.631 148.604 153.385C 154.393 153.143 158.89 148.252 158.643 142.463zM 131.417 125.858C 137.694 129.69 136.225 123.327 147.206 120.592C 148.929 120.166 150.706 119.827 152.554 119.748C 165.546 119.205 176.518 129.288 177.065 142.28C 177.616 155.272 167.53 166.331 154.538 166.791C 143.679 167.178 134.444 160.088 131.21 150.237C 129.249 144.256 123.151 146.35 123.151 146.35L 131.417 125.858" style="stroke:none; fill-rule:evenodd; fill:#000000"/>
    <path d="M 29.6204 265.393L 2.62042 265.393" style="stroke:#000000; stroke-width:0.5; fill:none"/>
    <path d="M 38.6204 274.393L 38.6204 301.393" style="stroke:#000000; stroke-width:0.5; fill:none"/>
    <path d="M 29.6204 38.6204L 2.62042 38.6204" style="stroke:#000000; stroke-width:0.5; fill:none"/>
    <path d="M 38.6204 29.6204L 38.6204 2.62042" style="stroke:#000000; stroke-width:0.5; fill:none"/>
    <path d="M 274.393 38.6204L 301.393 38.6204" style="stroke:#000000; stroke-width:0.5; fill:none"/>
    <path d="M 265.393 29.6204L 265.393 2.62042" style="stroke:#000000; stroke-width:0.5; fill:none"/>
    <path d="M 274.393 265.393L 301.393 265.393" style="stroke:#000000; stroke-width:0.5; fill:none"/>
    <path d="M 265.393 274.393L 265.393 301.393" style="stroke:#000000; stroke-width:0.5; fill:none"/>
  </g>
</svg>

<svg viewBox="0 0 304.01 304.01"><g transform="matrix(1.35328 0 0 1.35328-53.21-52.19)" fill-rule="evenodd"><path d="m180.86 141.99c0 .043.008.086.008.129.637 15.09-11.08 27.835-26.17 28.472-12.48.528-23.363-7.402-27.11-18.699-.828-2.504-1.59-2.062-5.242-.992l-6.493 18.03c-.226.61-.699 2.137-.597 2.817.41 2.777 1.636 2.773 4.207 3.613l15.04 2.273.015 27.841c.004 11.406 9.254 20.644 20.657 20.64l22.261-.062c45.02-3.278 74.44-39.05 74.68-84.11l-71.25.047"/><path d="m251.12 130.24c-3.992-22.383-19.719-42.852-42.21-49.824-5.203-1.61-10.769-2.493-16.637-2.512l-.039.012c-.957-.004-1.918.015-2.886.058-19.868.914-39.965 13.738-51.848 33.422-1.512 2.504-2.82 5.176-3.895 8.02l-.332 1.324c.754 2.594 3.079 1.316 3.079 1.316 4.476-3.804 9.722-5.832 16.05-6.097 10.829-.457 20.446 5.445 25.25 14.39v-.164l73.47.059"/><path d="m158.64 142.46c-.242-5.785-5.132-10.281-10.918-10.04-5.789.246-10.285 5.137-10.04 10.922.247 5.789 5.137 10.285 10.922 10.04 5.789-.242 10.286-5.133 10.04-10.922m-27.23-16.605c6.277 3.832 4.808-2.531 15.789-5.266 1.723-.426 3.5-.765 5.348-.844 12.992-.543 23.964 9.54 24.511 22.532.551 12.992-9.535 24.05-22.527 24.511-10.859.387-20.09-6.703-23.328-16.554-1.961-5.981-8.06-3.887-8.06-3.887l8.266-20.492"/></g></svg>
